X:141
T:Seafarers
M:2/4
L:1/16
Q:1/4=3D100
K:Bb
F|\
(G2F)F F2E2|E2D2 z2B,C|D2z2 E2D2|E4 z2(CD)|
E2ED C2CB,|A,2C2 F2zF|F2EE D2C2|B,4   ||
